svgs/thin/filter.svg

<svg xmlns="http://www.w3.org/2000/svg" viewBox="0 0 512 512"><!--! Font Awesome Pro 6.0.0-alpha3 by @fontawesome - https://fontawesome.com License - https://fontawesome.com/license (Commercial License) --><path d="M479.3 48c6.727 0 12.4 3.523 15.17 9.426c1.258 2.676 3.562 9.645-2.16 16.55L304 301.1v154.9c0 5.529-4.734 8.015-8.094 8.015c-1.582 0-3.09-.4932-4.484-1.468l-80.03-56C209.3 405 208 402.6 208 400V301.1L19.69 73.97c-5.723-6.902-3.418-13.87-2.16-16.55C20.3 51.52 25.98 48 32.7 48H479.3zM479.3 32H32.7C5.209 32-9.965 63.28 7.375 84.19L192 306.8V400c0 7.828 3.812 15.17 10.25 19.66l80 55.98C286.5 478.6 291.3 480 295.9 480C308.3 480 320 470.2 320 455.1V306.8l184.6-222.6C521.1 63.28 506.8 32 479.3 32z"/></svg>

<svg xmlns="http://www.w3.org/2000/svg" viewBox="0 0 512 512"><!-- Font Awesome Pro 6.0.0-alpha2 by @fontawesome - https://fontawesome.com License - https://fontawesome.com/license (Commercial License) --><path d="M479.297 48C486.024 48 491.696 51.523 494.469 57.426C495.727 60.102 498.032 67.07 492.309 73.972L307.684 296.609L304.001 301.051V306.822V455.984C304.001 461.513 299.266 464 295.907 464C294.325 464 292.817 463.506 291.422 462.532L211.395 406.528C209.27 405.047 208.001 402.606 208.001 400V306.822V301.051L204.317 296.609L19.692 73.973C13.969 67.07 16.274 60.102 17.532 57.426C20.305 51.523 25.977 48 32.704 48H479.297M479.297 32H32.704C5.211 32 -9.964 63.275 7.376 84.186L192.001 306.822V400C192.001 407.828 195.813 415.172 202.251 419.656L282.251 475.641C286.536 478.639 291.274 480 295.907 480C308.34 480 320.001 470.203 320.001 455.984V306.822L504.626 84.186C521.965 63.275 506.79 32 479.297 32L479.297 32Z"/></svg>
